X: 94
T: No_23_Dancing_Song_of_the_Bi'jîkiwûck'.krn
%%abc-version 2.0
%%abcx-abcm2ps-target-version 5.9.1 (29 Sep 2008)
%%abc-creator hum2abc beta
%%abcx-conversion-date 2020/08/10 18:54:57
%%humdrum-veritas 771411675
%%humdrum-veritas-data 1313605334
%%linebreak <none>
%%barnumbers 0
L: 1/8
M: 2/4
K: Bb clef=bass
[K:clef=bass][M:2/4]CC CC | 
C4 ||  
[M:3/4]G,G,G,2G,G, ||  
[M:2/4]F,4- | 
F,4 | 
B,B, B,B, | 
B,4 ||  
[M:3/4]B,B,G,2G,G, ||  
[M:2/4]F,4 | 
D,D, D,F, | 
F,4 ||  
[M:3/4]F,F,D,2D,C, ||  
[M:2/4]C,4 | 
C,C, C,C, | 
C,4 ||  
[M:3/4]C,C,B,,2G,,G,, ||  
[M:2/4]F,,4- | 
F,,4 | 
CC CC | 
C4 | 
G,G, G,G, | 
G,2G,G, | 
G,2F,F, | 
F,4- | 
F,4 | 
B,B, B,B, | 
B,4 ||  
[M:3/4]B,B,G,2G,G, ||  
[M:2/4]F,4 | 
G,G, G,G, | 
F,4 | 
D,D, C,C, | 
C,4 ||  
[M:3/4]C,C,B,,2G,,G,, ||  
[M:2/4]F,,4- | 
F,,4 |]  


